X: 1
T: Happenchance, The
M: 4/4
L: 1/8
R: hornpipe
K: Dmaj
|:DEFG A^GAB|A^GAB A=GFE|D2(3EFG ABAG|(3FGF EF DB,A,B,|
DEFG A^GAB|A^GAB A=GFE|DFEG F2GB|1AF (3GFE D2 (3DED:|2AFGE Daag||
|:(3fgf ef dBAF|ABAF ABAF|fffe dBAF|ABAF Eaag|
(3fgf ef dBAF|ABAF Ae (3ffg|afge fdec|1(3ddB AF Daag:|2(3ddB AF D2 (3DDD||
